X:1
T:Fantasia nº.8  Z.739
T:22-6-1680
T:H. Purcell
T:©Francisco Javier Meca Guevara
T:©Francisco Javier Meca Guevara
T:©Francisco Javier Meca Guevara
T:©Francisco Javier Meca Guevara
Z:©Francisco Javier Meca Guevara
%%score { ( 1 2 ) | ( 3 4 ) }
L:1/8
M:4/2
K:F
V:1 treble nm="Piano"
V:2 treble 
V:3 bass 
V:4 bass 
V:1
 z8 A4 d4- | d2 e2 f2 ed ^c8 | z4 d4 A6 G2 | F2 GA B6 A2 G2 FE | ^C4 D4 E4 A4- | A2 =B2 c2 BA ^G8 | %6
 A4 z4 D4 d4- | d2 e2 f2 ed ^c2 =B2 =c4 | =B4 A4 d4 G4- | G2 F2 E2 FG A2 =B2 c4 | d4 g6 a2 b2 ag | %11
 e6 f2 g8 | g4 c12- | c4 B4 A4 B2 c2 | d12 c2 B2 | A4 g4 d6 c2 | B2 cd _e6 d2 c2 de | %17
 f2 _e4 d2 e2 G2 c4- | c2 d2 _e2 dc A4 d4- | d2 e2 f2 ed ^c2 d2 e4- | e2 A2 d8 ^c4 | %21
 d4 z2 A2 A2 A2 B4- | B2 A2 f6 e2 d4- | d2 d2 c6 c2 B4- | B2 B2 A4 G8 | A4 z2 c2 c2 c2 f4- | %26
 f2 f2 ^f2 f2 g6 ^g2 | a2 e2 f6 ^c2 d2 A2 | B6 B2 =B2 B2 c4- | c2 =BA ^G6 ^FE A4- | %30
 A4 ^G4 A2 e2 f2 g2 | ^c2 e2 A2 d2 G2 =c2 F4 | E8"^Brisk" z8 | z4 A2 e4 d2 e^c/d/ ec | %34
 d4 z4 d2 a4 g2 | ae/f/ ge f2 e3 d c=B A4 | G2 g4 ^f2 gd/e/ =fd _e4 | d4 c2 G2 c6 =B2 | %38
 cd/_e/ fd c4 B6 B2 | _A4 G4- GF F4 =E2 | F2 c2 G4 _A2 Gc/B/ Ac B2- | %41
 B2 c>_d TB3 _A A2 c2 =d2 _e2- | e2 f2 c2 f2 ^f2 g2 A2 d2 | ^d2 e2 ^F2 =B2 B2 c2 ^G2 A2 | %44
 D4 C2"^Slow" G2 c6 d>A | B6 A>E F6 E>D | B6 c>d ^F>E D2 Cc B2 | !fermata!A16 |] %48
V:2
 z16 | D4 G6 A2 B2 AG | F8- F2 E2 D2 ^C2 | D8- DE F2 E4- | E2 D2 D8 ^C4 | F8 E8 | E4 A6 =B2 c2 BA | %7
 ^G8 A6 =G2 | F2 E2 F8 z4 | C4 c6 d2 _e2 dc | =B4 c8 B4 | c2 G2 C6 C2 D2 d2 | G6 F2 E2 FG _A4 | %13
 G8 c4 F4- | F2 E2 D2 E^F G4 A2 G2 | ^F4 G8 F4 | d4 G6 F2 _E2 FG | _A2 G2 F4 G6 F2 | %18
 _E8 D6[I:staff +1] A,2 |[I:staff -1] D6 E2 F2 ED[I:staff +1] ^C4 |[I:staff -1] D2 EF G4 E8 | %21
 ^F8 z2 =F2 F2 F2 | G2 FG A2 B2 A6 G2 | F4 E4 D4 G4- | G2 G2 F8 E4 | F8 z4 z2 F2 | %26
 F2 F2 B2 c2 d6 d2 | c2 B2 A6 G2 F2 E2 | D6 D2 D2 D2 C4- | C2 C2 D4 E6 ^F2 | %30
 G2 =F2 E2 D2 ^C2 ^c2 d2 e2 | A2 G4 F4 E4 D2- | D2 ^C=B, C4 z8 | z8 z2 D2 A4- | %34
 A2 G2 AE/F/ GE F6[I:staff +1] ED |[I:staff -1] E4[I:staff +1] =B,4[I:staff -1] A2 e4 d2 | %36
 e=B/c/ dB c4 _B6 AG | F2 D2[I:staff +1] G,2[I:staff -1] G4 F2 GD/_E/ FD | %38
 _E2[I:staff +1] DB,[I:staff -1] C2 E4 D2 EB,/C/ _DB, | C2 B,3 C _D_E F2 D2 C4- | %40
 C3 C _D2 C4 C2 F4 | _E2 _A4 G2 A2 _e2 B4 | =A2 B4 A4 G4 ^F2- | F2 E4 D4 C2[I:staff +1] =B,2 A,2 | %44
 G,4 G,4[I:staff -1] z2 G2 A4- | A2 G>F E6 D>^C D4- | D2 E>^F G2 A2 B2 c>d ^F2 G2- | %47
 G2 ^FE !fermata!F12 |] %48
V:3
 D4 A,6 G,2 F,2 G,A, | B,8 A,8 | D,16 | D4[I:staff -1] G6 A2 B2 AG | F8 E8 | %5
[I:staff +1] D4- D[I:staff -1]EDC[I:staff +1] =B,8 | A,6[I:staff -1] E2 F4- FGFE | %7
 D8 E4[I:staff +1] A,4- | A,2 G,2 F,2 G,A, B,8 | A,4 F,4 F,4[I:staff -1] F4- | %10
 F4[I:staff +1] _E4 D8 | C4[I:staff -1] c4 G6 F2 | E2 FG _A4 G4 F4- | F4 E4 F2 _E2 D2 C2 | %14
[I:staff +1] B,4[I:staff -1] G6 F2 _E4- | E2[I:staff +1] DC B,2[I:staff -1] B2 A4[I:staff +1] D4- | %16
 D2 C2 B,2 CD _E6 E2 | D2[I:staff -1] c4 _A2 G2 F2[I:staff +1] _E4- | E2 D2 C2 B,A, ^F,6 F,2 | %19
 G,4 D4 A,6 G,2 | F,2 G,A, B,4 A,8 | A,8 z2 D2 D2 D2 |[I:staff -1] E6 DE F6 ED | %23
[I:staff +1] A,4[I:staff -1] A6 A2 G2 F2 | E4[I:staff +1] C8 B,4 | %25
[I:staff -1] A,2 C2[I:staff +1] C2 C2 F2 A,2 A,2 A,2 | D6 D2 D2 D2 E4- | E2 E2 A2 G2 F2 E2 D4- | %28
 D2 C2 B,2 A,2 G,2[I:staff -1] G2 G2 G2 | A2[I:staff +1] A,2 =B,6 A,^G, C4 | =B,8 A,2 A4 G2 | %31
 F2 E4 D4 ^C4 D2 | A,8 z2[I:staff -1] E2 A4- | A2 G2 AE/F/ GE F4 E2[I:staff +1] A,2 | %34
 B,4 A,6 A,2[I:staff -1] D4- | D2[I:staff +1] ^C2 D=B,/=C/ DB, C4- CB, A,2 | %36
 =B,2 G,2 A,4 G,2 D4 C2 | DD/E/[I:staff -1] FD _E4- E2 DC D2[I:staff +1] G,2 | %38
[I:staff -1] G2 B4 A2 BF/G/ _AF G4 | F4 _E2 _DC/B,/[I:staff +1] _A,3 B, G,4 | %40
[I:staff -1] _A,3[I:staff +1] A, B,2 C2[I:staff -1] F4[I:staff +1] F,4 | %41
 G,2 _A,2 B,C _D2[I:staff -1] C2[I:staff +1] _E2 F2 B,2 | C2 D2 C6 =B,2 =A,4- | %43
 A,2 G,2 ^F,2[I:staff -1] ^F2 E4 D2 C2- | C2[I:staff +1] =B,2 C4 z2 _E2 D4- | %45
 D2 D2[I:staff -1] G2[I:staff +1] G,2 A,6 G,>^F, | G,2[I:staff -1] D4[I:staff +1] C4 B,2 A,2 G,2 | %47
 !fermata!D16 |] %48
V:4
 z16 | z16 | D4 A,6 G,2 F,2 G,A, | B,6 A,2 G,4 G,,4 | A,,12 A,,4 | D,8- D,2 E,2 F,2 E,D, | %6
 ^C,8 D,6 =C,2 | =B,,8 A,,4 A,4 | D,6 C,2 B,,2 C,D, _E,3 D, | C,6 B,,2 A,,4 _A,,4 | G,,12 G,,4 | %11
 C,6 D,2 _E,2 D,C, =B,,4 | C,16- | C,8 F,,4 F,4 | B,,6 A,,2 G,,2 A,,B,, C,4 | D,12 D4 | %16
 G,6 F,2 _E,2 F,G, _A,2 G,2 | F,2 G,_A, B,4 _E,6 D,2 | C,12 B,,2 A,,2 | B,,8 A,,8- | %20
 A,,4 G,4 A,,8 | D,8 z2 D,2 D,2 D,2 | ^C,6 D,2 F,,6 G,,2 | A,,6 A,,2 B,,6 B,,2 | C,16 | %25
 F,,8 z2 F,2 F,2 F,2 | B,6 B,2 =B,2 B,2 C4- | C2 ^C2 D2 A,2 B,6 ^F,2 | G,2 D,2 _E,6 E,2 =E,2 E,2 | %29
 F,6 E,D, C,6 =B,,A,, | E,8 A,,8- | A,,16- | A,,4 z2 A,2 D2 ^C2 DA,/B,/ =CA, | %33
 B,2 B,,2 A,,8- A,,2 A,,2 | D,6 ^C,2 D,A,,/B,,/ =C,A,, B,,4 | A,,2 A,4 ^G,2 A,E,/F,/ G,E, F,4 | %36
 E,4 D,4 G,4 G,,2 C,2- | C,2 =B,,2 C,G,,/A,,/ B,,G,, _A,,4 G,,4 | C,2 D,2 F,4 B,,4 _E,4- | %39
 E,2 D,2 _E,2 B,,C, _D,2 B,,2 C,4 | F,,2 F,4 =E,2 F,C,/D,/ _E,C, _D,4 | %41
 C,2 _A,,2 _E,4 A,,2 _A,4 _G,2 | F,2 D,2 F,4 D,2 =B,,2 D,4 | =B,,2 G,,2 B,,4 ^G,,2 A,,2 E,2 =F,2 | %44
 G,4 C,4 z2 C2 ^F,4- | F,2 G,2 C,6 D,>A,, B,,4- | B,,2 A,,>G,, _E,4 D,8 | !fermata!D,16 |] %48

